src/assets/img/action_and_leasing-list/icon3.svg

<svg width="50" height="50" viewBox="0 0 50 50" fill="none" xmlns="http://www.w3.org/2000/svg">
<path d="M25.7812 33.707V32.0312H24.2188V33.707C23.3164 33.993 22.6562 34.8281 22.6562 35.8234C22.6562 36.6727 23.1281 37.4367 23.8891 37.818L25.4125 38.5797C25.6398 38.693 25.7812 38.9219 25.7812 39.1766C25.7812 39.5437 25.482 39.8438 25.1141 39.8438H24.8859C24.518 39.8438 24.2188 39.5437 24.2188 39.1766V38.2812H22.6562V39.1766C22.6562 40.1727 23.3164 41.0078 24.2188 41.293V42.9688H25.7812V41.293C26.6836 41.007 27.3438 40.1719 27.3438 39.1766C27.3438 38.3273 26.8719 37.5633 26.1109 37.182L24.5875 36.4203C24.3602 36.307 24.2188 36.0781 24.2188 35.8234C24.2188 35.4563 24.518 35.1562 24.8859 35.1562H25.1141C25.482 35.1562 25.7812 35.4563 25.7812 35.8234V35.9375H27.3438V35.8234C27.3438 34.8281 26.6836 33.993 25.7812 33.707Z" fill="#333333"/>
<path d="M25 28.9062C20.2617 28.9062 16.4062 32.7617 16.4062 37.5C16.4062 42.2383 20.2617 46.0938 25 46.0938C29.7383 46.0938 33.5938 42.2383 33.5938 37.5C33.5938 32.7617 29.7383 28.9062 25 28.9062ZM25 44.5312C21.1234 44.5312 17.9688 41.3773 17.9688 37.5C17.9688 33.6227 21.1234 30.4688 25 30.4688C28.8766 30.4688 32.0312 33.6227 32.0312 37.5C32.0312 41.3773 28.8766 44.5312 25 44.5312Z" fill="#333333"/>
<path d="M49.2188 21.0938V16.7852L28.2875 1.83518C26.357 0.455493 23.6422 0.455493 21.7117 1.83518L0.78125 16.7852V21.0938H3.90625V24.2188H3.125C1.83281 24.2188 0.78125 25.2703 0.78125 26.5625V28.125C0.78125 29.2055 1.51953 30.1086 2.51562 30.3781C2.40703 30.6485 2.34375 30.9414 2.34375 31.25V32.8125C2.34375 33.1211 2.40703 33.4141 2.51562 33.6844C1.51953 33.9539 0.78125 34.8571 0.78125 35.9375V37.5C0.78125 38.5805 1.51953 39.4836 2.51562 39.7531C2.40703 40.0235 2.34375 40.3164 2.34375 40.625V42.1875C2.34375 42.4961 2.40703 42.7891 2.51562 43.0594C1.51953 43.3289 0.78125 44.2321 0.78125 45.3125V46.875C0.78125 48.1672 1.83281 49.2188 3.125 49.2188H15.625C16.9172 49.2188 17.9688 48.1672 17.9688 46.875V46.8531C19.9297 48.3313 22.3602 49.2188 25 49.2188C27.0461 49.2188 28.9703 48.6891 30.6461 47.7633C30.9969 48.6157 31.8344 49.2188 32.8125 49.2188H45.3125C46.6047 49.2188 47.6562 48.1672 47.6562 46.875V45.3125C47.6562 45.0039 47.593 44.711 47.4844 44.4406C48.4805 44.1703 49.2188 43.268 49.2188 42.1875V40.625C49.2188 39.5446 48.4805 38.6414 47.4844 38.3719C47.593 38.1016 47.6562 37.8086 47.6562 37.5V35.9375C47.6562 35.6289 47.593 35.336 47.4844 35.0656C48.4805 34.7953 49.2188 33.893 49.2188 32.8125V31.25C49.2188 30.1696 48.4805 29.2664 47.4844 28.9969C47.593 28.7266 47.6562 28.4336 47.6562 28.125V26.5625C47.6562 25.5453 47.0008 24.686 46.0938 24.3625V21.0938H49.2188ZM22.6203 3.10627C24.0172 2.11018 25.9836 2.11018 27.3805 3.10627L46 16.4063H43.3117L26.4727 4.37893C25.6094 3.7594 24.3891 3.76018 23.5281 4.37815L6.68906 16.4063H4L22.6203 3.10627ZM40.6234 16.4063H9.37656L24.4375 5.64846C24.7672 5.41331 25.232 5.41252 25.5641 5.64924L40.6234 16.4063ZM2.34375 17.9688H47.6562V19.5313H2.34375V17.9688ZM2.34375 26.5625C2.34375 26.1313 2.69453 25.7813 3.125 25.7813H3.90625V27.3438H5.46875V25.7813H7.03125V27.3438H8.59375V25.7813H10.1562V27.3438H11.7188V25.7813H13.2812V27.3438H14.8438V25.7813H15.625C16.0555 25.7813 16.4062 26.1313 16.4062 26.5625V28.125C16.4062 28.5563 16.0555 28.9063 15.625 28.9063H3.125C2.69453 28.9063 2.34375 28.5563 2.34375 28.125V26.5625ZM4.6875 42.9688C4.25703 42.9688 3.90625 42.6188 3.90625 42.1875V40.625C3.90625 40.1938 4.25703 39.8438 4.6875 39.8438H5.46875V41.4063H7.03125V39.8438H8.59375V41.4063H10.1562V39.8438H11.7188V41.4063H13.2812V39.8438H13.5172C13.743 40.9508 14.1289 41.9985 14.643 42.9688H4.6875ZM13.9648 33.5938H4.6875C4.25703 33.5938 3.90625 33.2438 3.90625 32.8125V31.25C3.90625 30.8188 4.25703 30.4688 4.6875 30.4688H5.46875V32.0313H7.03125V30.4688H8.59375V32.0313H10.1562V30.4688H11.7188V32.0313H13.2812V30.4688H14.8438V31.6781C14.4945 32.2852 14.2023 32.9258 13.9648 33.5938ZM2.34375 35.9375C2.34375 35.5063 2.69453 35.1563 3.125 35.1563H3.90625V36.7188H5.46875V35.1563H7.03125V36.7188H8.59375V35.1563H10.1562V36.7188H11.7188V35.1563H13.2812V36.7188H13.3211C13.3039 36.9781 13.2812 37.236 13.2812 37.5C13.2812 37.7641 13.3039 38.0219 13.3211 38.2813H4.6875H3.125C2.69453 38.2813 2.34375 37.9313 2.34375 37.5V35.9375ZM15.625 47.6563H3.125C2.69453 47.6563 2.34375 47.3063 2.34375 46.875V45.3125C2.34375 44.8813 2.69453 44.5313 3.125 44.5313H3.90625V46.0938H5.46875V44.5313H7.03125V46.0938H8.59375V44.5313H10.1562V46.0938H11.7188V44.5313H13.2812V46.0938H14.8438V44.5313H15.625C15.632 44.5313 15.643 44.536 15.6508 44.536C15.8844 44.8453 16.132 45.143 16.3945 45.4274L16.4062 46.875C16.4062 47.3063 16.0555 47.6563 15.625 47.6563ZM14.8438 37.5C14.8438 31.9 19.4 27.3438 25 27.3438C30.6 27.3438 35.1562 31.9 35.1562 37.5C35.1562 43.1 30.6 47.6563 25 47.6563C19.4 47.6563 14.8438 43.1 14.8438 37.5ZM32.0312 28.125V26.5625C32.0312 26.1313 32.382 25.7813 32.8125 25.7813H33.5938V27.3438H35.1562V25.7813H36.7188V27.3438H38.2812V25.7813H39.8438V27.3438H41.4062V25.7813H42.9688V27.3438H44.5312V25.7813H45.3125C45.743 25.7813 46.0938 26.1313 46.0938 26.5625V28.125C46.0938 28.5563 45.743 28.9063 45.3125 28.9063L32.9352 28.9016C32.6484 28.6367 32.3484 28.3867 32.0359 28.1508C32.0359 28.143 32.0312 28.1321 32.0312 28.125ZM34.3531 30.4688H34.375H35.1562V31.6781C34.9141 31.2571 34.6437 30.8555 34.3531 30.4688ZM46.0938 46.875C46.0938 47.3063 45.743 47.6563 45.3125 47.6563H32.8125C32.382 47.6563 32.0312 47.3063 32.0312 46.875V46.8531C32.5938 46.4289 33.1164 45.9571 33.5938 45.4407V46.0938H35.1562V44.5313H36.7188V46.0938H38.2812V44.5313H39.8438V46.0938H41.4062V44.5313H42.9688V46.0938H44.5312V44.5313H45.3125C45.743 44.5313 46.0938 44.8813 46.0938 45.3125V46.875ZM47.6562 42.1875C47.6562 42.6188 47.3055 42.9688 46.875 42.9688H45.3125H35.3563C35.8703 41.9985 36.257 40.9508 36.482 39.8438H38.2812V41.4063H39.8438V39.8438H41.4062V41.4063H42.9688V39.8438H44.5312V41.4063H46.0938V39.8438H46.875C47.3055 39.8438 47.6562 40.1938 47.6562 40.625V42.1875ZM38.2812 36.7188V35.1563H39.8438V36.7188H41.4062V35.1563H42.9688V36.7188H44.5312V35.1563H45.3125C45.743 35.1563 46.0938 35.5063 46.0938 35.9375V37.5C46.0938 37.9313 45.743 38.2813 45.3125 38.2813H36.6789C36.6961 38.0219 36.7188 37.7641 36.7188 37.5C36.7188 36.6977 36.6367 35.9141 36.4828 35.1563H36.7188V36.7188H38.2812ZM47.6562 32.8125C47.6562 33.2438 47.3055 33.5938 46.875 33.5938H45.3125H36.0352C35.8438 33.0547 35.6219 32.5305 35.357 32.0313H36.7188V30.4688H38.2812V32.0313H39.8438V30.4688H41.4062V32.0313H42.9688V30.4688H44.5312V32.0313H46.0938V30.4688H46.875C47.3055 30.4688 47.6562 30.8188 47.6562 31.25V32.8125ZM44.5312 24.2188H32.8125C31.5203 24.2188 30.4688 25.2703 30.4688 26.5625V27.1438C28.8344 26.2774 26.975 25.7813 25 25.7813C22.3594 25.7813 19.9281 26.6696 17.9664 28.1492C17.9664 28.1406 17.9688 28.1336 17.9688 28.125V26.5625C17.9688 25.2703 16.9172 24.2188 15.625 24.2188H5.46875V21.0938H44.5312V24.2188Z" fill="#333333"/>
<path d="M21.3191 14.2926L27.5683 8.04338L28.673 9.14807L22.4238 15.3973L21.3191 14.2926Z" fill="#333333"/>
<path d="M26.5625 14.8438C26.994 14.8438 27.3438 14.494 27.3438 14.0625C27.3438 13.631 26.994 13.2812 26.5625 13.2812C26.131 13.2812 25.7812 13.631 25.7812 14.0625C25.7812 14.494 26.131 14.8438 26.5625 14.8438Z" fill="#333333"/>
<path d="M23.4375 10.1562C23.869 10.1562 24.2188 9.80647 24.2188 9.375C24.2188 8.94353 23.869 8.59375 23.4375 8.59375C23.006 8.59375 22.6562 8.94353 22.6562 9.375C22.6562 9.80647 23.006 10.1562 23.4375 10.1562Z" fill="#333333"/>
</svg>

<svg width="50" height="50" fill="none" xmlns="http://www.w3.org/2000/svg"><path d="M25.781 33.707v-1.676H24.22v1.676a2.226 2.226 0 00-1.563 2.116c0 .85.472 1.614 1.233 1.995l1.524.762a.668.668 0 01-.298 1.264h-.23a.668.668 0 01-.666-.667v-.896h-1.563v.896c0 .996.66 1.83 1.563 2.116v1.676h1.562v-1.676a2.226 2.226 0 001.563-2.116 2.22 2.22 0 00-1.233-1.995l-1.524-.762a.668.668 0 01.298-1.264h.23c.367 0 .666.3.666.667v.114h1.563v-.114c0-.995-.66-1.83-1.563-2.116z" fill="#333"/><path d="M25 28.906c-4.738 0-8.594 3.856-8.594 8.594 0 4.738 3.856 8.594 8.594 8.594 4.738 0 8.594-3.856 8.594-8.594 0-4.738-3.856-8.594-8.594-8.594zm0 15.625a7.04 7.04 0 01-7.031-7.031A7.04 7.04 0 0125 30.469a7.04 7.04 0 017.031 7.031A7.04 7.04 0 0125 44.531z" fill="#333"/><path d="M49.219 21.094v-4.309L28.288 1.835c-1.931-1.38-4.646-1.38-6.576 0L.782 16.785v4.309h3.124v3.125h-.781a2.347 2.347 0 00-2.344 2.343v1.563a2.34 2.34 0 001.735 2.253c-.109.27-.172.563-.172.872v1.563c0 .308.063.601.172.871A2.34 2.34 0 00.78 35.938V37.5a2.34 2.34 0 001.735 2.253c-.109.27-.172.563-.172.872v1.563c0 .308.063.601.172.871A2.34 2.34 0 00.78 45.313v1.562a2.347 2.347 0 002.344 2.344h12.5a2.347 2.347 0 002.344-2.344v-.022A11.641 11.641 0 0025 49.22c2.046 0 3.97-.53 5.646-1.456a2.345 2.345 0 002.166 1.456h12.5a2.347 2.347 0 002.344-2.344v-1.563a2.32 2.32 0 00-.172-.871 2.34 2.34 0 001.735-2.254v-1.562a2.34 2.34 0 00-1.735-2.253c.109-.27.172-.563.172-.872v-1.563a2.32 2.32 0 00-.172-.871 2.34 2.34 0 001.735-2.254V31.25a2.34 2.34 0 00-1.735-2.253c.109-.27.172-.563.172-.872v-1.563a2.34 2.34 0 00-1.562-2.2v-3.268h3.125zM22.62 3.106c1.397-.996 3.364-.996 4.76 0L46 16.406h-2.688L26.472 4.38a2.568 2.568 0 00-2.944 0L6.69 16.405H4l18.62-13.3zm18.003 13.3H9.377l15.06-10.758a.985.985 0 011.127.001l15.06 10.757zM2.343 17.97h45.313v1.562H2.344V17.97zm0 8.593c0-.43.352-.78.782-.78h.781v1.562H5.47V25.78h1.56v1.563h1.563V25.78h1.562v1.563h1.563V25.78h1.562v1.563h1.563V25.78h.781c.43 0 .781.35.781.782v1.562c0 .431-.35.781-.781.781h-12.5a.782.782 0 01-.781-.781v-1.563zM4.689 42.97a.782.782 0 01-.782-.782v-1.562c0-.431.351-.781.781-.781h.782v1.562h1.56v-1.562h1.563v1.562h1.562v-1.562h1.563v1.562h1.562v-1.562h.236a11.64 11.64 0 001.126 3.125H4.687zm9.277-9.375H4.688a.782.782 0 01-.782-.782V31.25c0-.431.351-.781.781-.781h.782v1.562H7.03V30.47h1.563v1.562h1.562V30.47h1.563v1.562h1.562V30.47h1.563v1.21c-.35.606-.642 1.247-.88 1.915zM2.344 35.937c0-.43.35-.78.781-.78h.781v1.562H5.47v-1.563h1.56v1.563h1.563v-1.563h1.562v1.563h1.563v-1.563h1.562v1.563h.04c-.017.26-.04.517-.04.781s.023.522.04.781H3.125a.782.782 0 01-.781-.781v-1.563zm13.281 11.72h-12.5a.782.782 0 01-.781-.782v-1.563c0-.43.35-.78.781-.78h.781v1.562H5.47V44.53h1.56v1.563h1.563V44.53h1.562v1.563h1.563V44.53h1.562v1.563h1.563V44.53h.781c.007 0 .018.005.026.005.233.31.481.607.744.891l.011 1.448c0 .431-.35.781-.781.781zM14.844 37.5c0-5.6 4.556-10.156 10.156-10.156 5.6 0 10.156 4.556 10.156 10.156 0 5.6-4.556 10.156-10.156 10.156-5.6 0-10.156-4.556-10.156-10.156zm17.187-9.375v-1.563c0-.43.351-.78.782-.78h.78v1.562h1.563V25.78h1.563v1.563h1.562V25.78h1.563v1.563h1.562V25.78h1.563v1.563h1.562V25.78h.782c.43 0 .78.35.78.782v1.562c0 .431-.35.781-.78.781l-12.378-.004a11.819 11.819 0 00-.9-.751c0-.008-.004-.019-.004-.026zm2.322 2.344h.803v1.21a11.841 11.841 0 00-.803-1.21zm11.74 16.406c0 .431-.35.781-.78.781h-12.5a.782.782 0 01-.782-.781v-.022a11.804 11.804 0 001.563-1.412v.653h1.562V44.53h1.563v1.563h1.562V44.53h1.563v1.563h1.562V44.53h1.563v1.563h1.562V44.53h.782c.43 0 .78.35.78.782v1.562zm1.563-4.688c0 .432-.35.782-.781.782H35.356c.514-.97.901-2.018 1.126-3.125h1.8v1.562h1.562v-1.562h1.562v1.562h1.563v-1.562h1.562v1.562h1.563v-1.562h.781c.43 0 .781.35.781.781v1.563zm-9.375-5.468v-1.563h1.563v1.563h1.562v-1.563h1.563v1.563h1.562v-1.563h.782c.43 0 .78.35.78.782V37.5c0 .431-.35.781-.78.781h-8.634c.017-.26.04-.517.04-.781 0-.802-.082-1.586-.236-2.344h.236v1.563h1.562zm9.375-3.907c0 .432-.35.782-.781.782h-10.84a11.624 11.624 0 00-.678-1.563h1.362V30.47h1.562v1.562h1.563V30.47h1.562v1.562h1.563V30.47h1.562v1.562h1.563V30.47h.781c.43 0 .781.35.781.781v1.563zm-3.125-8.593H32.813a2.347 2.347 0 00-2.344 2.343v.582a11.641 11.641 0 00-12.503 1.005c0-.008.003-.015.003-.024v-1.563a2.347 2.347 0 00-2.344-2.343H5.469v-3.125H44.53v3.125z" fill="#333"/><path d="M21.32 14.293l6.248-6.25 1.105 1.105-6.25 6.25-1.104-1.105zm5.243.551a.781.781 0 100-1.563.781.781 0 000 1.563zm-3.125-4.688a.781.781 0 100-1.562.781.781 0 000 1.562z" fill="#333"/></svg>
